icons/app-launcher-16-f.svg

<svg xmlns="http://www.w3.org/2000/svg" viewBox="0 0 16 16"><path d="M2.95 1.5A1.45 1.45 0 1 1 1.5.05 1.45 1.45 0 0 1 2.95 1.5zM7.5.05A1.45 1.45 0 1 0 8.95 1.5 1.45 1.45 0 0 0 7.5.05zm6 2.9a1.45 1.45 0 1 0-1.45-1.45 1.45 1.45 0 0 0 1.45 1.45zm-12 3.1A1.45 1.45 0 1 0 2.95 7.5 1.45 1.45 0 0 0 1.5 6.05zm6 0A1.45 1.45 0 1 0 8.95 7.5 1.45 1.45 0 0 0 7.5 6.05zm6 0a1.45 1.45 0 1 0 1.45 1.45 1.45 1.45 0 0 0-1.45-1.45zm-12 6a1.45 1.45 0 1 0 1.45 1.45 1.45 1.45 0 0 0-1.45-1.45zm6 0a1.45 1.45 0 1 0 1.45 1.45 1.45 1.45 0 0 0-1.45-1.45zm6 0a1.45 1.45 0 1 0 1.45 1.45 1.45 1.45 0 0 0-1.45-1.45z"/></svg>

<svg xmlns="http://www.w3.org/2000/svg" viewBox="0 0 16 16"><path d="M3 1.5A1.5 1.5 0 1 1 1.5 0 1.5 1.5 0 0 1 3 1.5zM7.5 0A1.5 1.5 0 1 0 9 1.5 1.5 1.5 0 0 0 7.5 0zm6 3A1.5 1.5 0 1 0 12 1.5 1.5 1.5 0 0 0 13.5 3zm-12 3A1.5 1.5 0 1 0 3 7.5 1.5 1.5 0 0 0 1.5 6zm6 0A1.5 1.5 0 1 0 9 7.5 1.5 1.5 0 0 0 7.5 6zm6 0A1.5 1.5 0 1 0 15 7.5 1.5 1.5 0 0 0 13.5 6zm-12 6A1.5 1.5 0 1 0 3 13.5 1.5 1.5 0 0 0 1.5 12zm6 0A1.5 1.5 0 1 0 9 13.5 1.5 1.5 0 0 0 7.5 12zm6 0a1.5 1.5 0 1 0 1.5 1.5 1.5 1.5 0 0 0-1.5-1.5z"/></svg>
